packages/tokens/icons/recommender/size32Px.svg

<svg viewBox="0 0 32 32" fill="none" xmlns="http://www.w3.org/2000/svg" width="1em" height="1em"><path d="M13.2488 20.1631L14.4571 16.4443C14.591 16.0322 14.4443 15.5809 14.0938 15.3262L10.9304 13.0279L14.8406 13.0279C15.2738 13.0279 15.6578 12.7489 15.7917 12.3369L17 8.61803L18.2083 12.3369C18.3422 12.7489 18.7262 13.0279 19.1594 13.0279L23.0696 13.0279L19.9062 15.3262C19.5557 15.5809 19.409 16.0323 19.5429 16.4443L20.7512 20.1631L17.5878 17.8647C17.2373 17.6101 16.7627 17.6101 16.4122 17.8647L13.2488 20.1631ZM13.2488 20.1631L12.7732 20.0086L13.2488 20.1631L13.5427 20.5676L13.2488 20.1631Z" stroke="currentColor" stroke-linejoin="round"/><circle cx="10" cy="10" r="9.5" transform="matrix(-1 0 0 1 27 5)" stroke="currentColor"/><path d="M4 28.0098L9.99999 22.0098" stroke="currentColor" stroke-linecap="round" stroke-linejoin="round"/></svg>

<svg xmlns="http://www.w3.org/2000/svg" fill="none" viewBox="0 0 32 32" width="1em" height="1em"><path stroke="currentColor" stroke-linejoin="round" d="m13.249 20.163 1.208-3.719a1 1 0 0 0-.363-1.118l-3.164-2.298h3.91a1 1 0 0 0 .952-.691L17 8.618l1.208 3.719a1 1 0 0 0 .951.69h3.91l-3.163 2.3a1 1 0 0 0-.363 1.117l1.208 3.72-3.163-2.3a1 1 0 0 0-1.176 0l-3.163 2.3Zm0 0-.476-.154.476.154.294.405-.294-.405Z"/><circle cx="10" cy="10" r="9.5" stroke="currentColor" transform="matrix(-1 0 0 1 27 5)"/><path stroke="currentColor" stroke-linecap="round" stroke-linejoin="round" d="m4 28.01 6-6"/></svg>
